X:3
T: Huang hua cao
N: C1503
O: China, Sichuan, Xiushan
S: II, 243]
R: Xiaodiao]
M: 2/4
L: 1/8
K: C
Ad2e | d2cA | GGFG | A4
dd2e | d2cA | GGFG | A4
GccG | cc2G | A2GF | D2GF | D4
Gc2A | GAGF | DDGF | DDz2

